X: 1
T: Gentle Milkmaid, The
C: Trad.
M: 4/4
R: Reel
L: 1/8
S: Alison Mackenzie
K: Bm
|:B2d2 cBBc|B2d2 feef|B2d2 cBBd|cA~A2 fe ef:|
|:d2 fe dBAB|d2af feef|d2 fe dBBd|cA~A2 fe ef:| 
